X:1
T:Send Out the Sunlight
T:John Robson Sweney
T:Send Out the Sunlight
T:Public Domain
T:Public Domain
T:Public Domain
C:John Robson Sweney
Z:Public Domain
%%score 1 ( 2 3 )
L:1/8
M:3/4
K:Eb
V:1 treble 
V:2 bass 
V:3 bass 
V:1
 [EG]2 [EG]2 [EG]2 | [EG]2 [FA]2 [GB]2 | [GB]2 [FA]2 [EG]2 | [DF]6 | [FA]2 [FA]2 [FA]2 | %5
w: 1.~Send out the|sun- light, the|sun- light of|cheer|Shine on earth’s|
w: 2.~Send out the|sun- light in|let- ter and|word;|Speak it and|
w: 3.~Send out the|sun- light each|hour and each|day,|Crown all the|
w: 4.~Send out the|sun- light that|speaks in a|smile,|Oft- en it|
w: 5.~Send out the|sun- light, as|free as the|air!|Bless- ings will|
w: 6.~Send out the|sun- light, you|have it in|you!|Clouds may ob-|
 [FA]2 [GB]2 [Ac]2 | [Ac]2 [GB]2 [FA]2 | [EG]6 | [GB]2 [Ge]2 [Ge]2 | [Ge]2 [GB]2 [EG]2 | %10
w: sad- ness till|it dis- ap-|pear—|Souls are in|wait- ing this|
w: think it till|hearts are all|stirred—|Hearts that are|hung- ry for|
w: years with its|lu- min- ous|ray,|Nour- ish the|seeds that are|
w: short- ens the|long, wear- y|mile,|Oft- en the|bur- den seems|
w: fol- low with|none to com-|pare.|Bless- ings of|peace, that will|
w: scure it just|now from your|view;|Pray for its|pre- sence! Your|
 [EA]2 [Ec]2 [Ec]2 | [Ec]6 | [Ad]2 [Ad]3 [Ad] | [Ad]2 [Ad]2 [Ad]2 | [Ge]6- | [Ge]6 || %16
w: mes- sage to|hear,|Send out the|sun- light of|love.||
w: prayers still un-|heard,|Send out the|sun- light of|love.||
w: sown on the|way,|Send out the|sun- light of|love.||
w: light for a|while,|Send out the|sun- light of|love.||
w: rise from des-|pair!|Send out the|sun- light of|love.||
w: prayer will come|true,|Send out the|sun- light of|love!||
"^Refrain" [GB]2 [Ge]3 [EG] | [GB]2 [FA]2 [=EG]2 | [FA]6- | [FA]6 | [FA]2 [Ad]3 [Ac] | %21
w: |||||
w: |||||
w: Send out the|sun- light of|love,||Send out the|
w: |||||
w: |||||
w: |||||
 [Ac]2 [GB]2 [^F=A]2 | [GB]6- | [GB]6 | [EG]2 [EG]3 [EG] | [EG]2 [EB]4 | [EA]2 [EA]3 [EA] | %27
w: ||||||
w: ||||||
w: sun- light of|love,||Send out the|sun- light,|Send out the|
w: ||||||
w: ||||||
w: ||||||
 [EA]2 [Ac]4 | [Fd]2 [Ad]3 [Ad] | [Ad]2 [Ac]2 [Ad]2 | [Ge]6- | [Ge]6 |] %32
w: |||||
w: |||||
w: sun- light,|Send out the|sun- light of|love.||
w: |||||
w: |||||
w: |||||
V:2
 [E,B,]2 [E,B,]2 [E,B,]2 | [E,B,]2 [E,B,]2 [E,E]2 | [E,E]2 [D,B,]2 [E,B,]2 | [B,,B,]6 | %4
 [B,,D]2 [B,,D]2 [B,,D]2 | B,2 B,2 B,2 | B,2 B,2 [B,,B,]2 | [E,B,]6 | [E,E]2 [E,B,]2 [E,B,]2 | %9
 [E,B,]2 [E,E]2 [_D,B,]2 | [C,A,]2 [A,,A,]2 [A,,A,]2 | [A,,A,]6 | [B,,F,]2 [B,,F,]3 [B,,F,] | %13
 [B,,F,]2 [B,,F,]2 [B,,B,]2 | [E,B,]6- | [E,B,]6 || z6 | z2 z2 z ([B,,B,] | %18
 [B,,B,]2 [D,B,]2 [F,B,]2 | [B,,D]6) | z6 | z2 z2 z ([E,E] | [E,E]2 [G,E]2 [B,E]2 | [E,E]6) | %24
 [E,B,]2 [E,B,]3 [E,B,] | [E,B,]2 [E,_D]4 | [A,,C]2 [A,,C]3 [A,,C] | [A,,C]2 [A,,E]4 | %28
 [B,,B,]2 [B,,B,]3 [B,,B,] | [B,,B,]2 [B,,B,]2 [B,,B,]2 | E,2 G,2 B,2 | [E,B,]6 |] %32
V:3
 x6 | x6 | x6 | x6 | x6 | B,2 B,2 B,2 | B,2 B,2 x2 | x6 | x6 | x6 | x6 | x6 | x6 | x6 | x6 | x6 || %16
 x6 | x6 | x6 | x6 | x6 | x6 | x6 | x6 | x6 | x6 | x6 | x6 | x6 | x6 | B,6- | x6 |] %32

